packages/katcn/src/icons/svg/brush.svg

<svg width="24" height="25" viewBox="0 0 24 25" fill="none" xmlns="http://www.w3.org/2000/svg">
<path d="M22.4 2.46802C21.7 1.76802 20.5 1.76802 19.5 2.46802C15.9 5.36802 12.4 9.16802 9 13.968C8 13.768 6.9 13.968 6 14.568C5.5 14.868 5 15.368 4.7 15.868C4.7 15.868 4.7 15.868 4.6 15.968C3.9 16.968 3.7 17.968 3.6 18.768C3.4 20.068 3.3 20.768 1.6 21.468C1.3 21.568 1 21.968 1 22.368C1 22.768 1.2 23.168 1.6 23.268C2.8 23.768 4 23.968 5.2 23.968C8.3 23.968 11.2 22.468 12.3 20.068C12.9 18.768 12.8 17.168 12 15.968C11.7 15.468 11.3 15.068 10.9 14.768C14.1 10.368 17.4 6.76802 20.7 4.16802C20.9 4.06802 21 3.96802 21 3.96802C21 3.96802 21 4.16802 20.9 4.36802C18.8 7.76802 16 11.168 12.7 14.368C12.3 14.768 12.3 15.368 12.7 15.768C13.1 16.168 13.7 16.168 14.1 15.768C17.6 12.468 20.4 8.96802 22.6 5.36802C22.8 4.96802 23 4.46802 23 3.96802C23 3.36802 22.8 2.86802 22.4 2.46802ZM10.4 19.268C9.6 21.168 7 22.168 4.5 21.968C5.3 21.068 5.5 19.968 5.7 19.068C5.8 18.368 5.9 17.768 6.3 17.168C6.4 17.068 6.4 17.068 6.4 16.968C6.6 16.668 6.9 16.368 7.2 16.168C7.7 15.868 8.3 15.768 8.9 15.868C9.4 16.068 10 16.468 10.3 16.968C10.7 17.668 10.8 18.568 10.4 19.268Z" fill="black"/>
</svg>

<svg xmlns="http://www.w3.org/2000/svg" fill="none" viewBox="0 0 24 25"><path fill="#000" d="M22.4 2.468c-.7-.7-1.9-.7-2.9 0-3.6 2.9-7.1 6.7-10.5 11.5-1-.2-2.1 0-3 .6-.5.3-1 .8-1.3 1.3l-.1.1c-.7 1-.9 2-1 2.8-.2 1.3-.3 2-2 2.7-.3.1-.6.5-.6.9s.2.8.6.9c1.2.5 2.4.7 3.6.7 3.1 0 6-1.5 7.1-3.9.6-1.3.5-2.9-.3-4.1-.3-.5-.7-.9-1.1-1.2 3.2-4.4 6.5-8 9.8-10.6.2-.1.3-.2.3-.2s0 .2-.1.4c-2.1 3.4-4.9 6.8-8.2 10-.4.4-.4 1 0 1.4s1 .4 1.4 0c3.5-3.3 6.3-6.8 8.5-10.4.2-.4.4-.9.4-1.4q0-.9-.6-1.5m-12 16.8c-.8 1.9-3.4 2.9-5.9 2.7.8-.9 1-2 1.2-2.9.1-.7.2-1.3.6-1.9.1-.1.1-.1.1-.2.2-.3.5-.6.8-.8.5-.3 1.1-.4 1.7-.3.5.2 1.1.6 1.4 1.1.4.7.5 1.6.1 2.3"/></svg>
